resources/haticons/SVG/line1.svg

<!-- Generated by IcoMoon.io -->
<svg version="1.1" xmlns="http://www.w3.org/2000/svg" width="24" height="24" viewBox="0 0 24 24">
<title>line1</title>
<path fill="#00c300" d="M19.365 9.863c0.349 0 0.63 0.285 0.63 0.631 0 0.345-0.281 0.63-0.63 0.63h-1.755v1.125h1.755c0.349 0 0.63 0.283 0.63 0.63 0 0.344-0.281 0.629-0.63 0.629h-2.386c-0.345 0-0.627-0.285-0.627-0.629v-4.771c0-0.345 0.282-0.63 0.63-0.63h2.386c0.346 0 0.627 0.285 0.627 0.63 0 0.349-0.281 0.63-0.63 0.63h-1.755v1.125zM15.51 12.879c0 0.27-0.174 0.51-0.432 0.596-0.064 0.021-0.133 0.031-0.199 0.031-0.211 0-0.391-0.090-0.51-0.25l-2.443-3.317v2.94c0 0.344-0.279 0.629-0.631 0.629-0.346 0-0.626-0.285-0.626-0.629v-4.771c0-0.27 0.173-0.51 0.43-0.595 0.060-0.023 0.136-0.033 0.194-0.033 0.195 0 0.375 0.104 0.495 0.254l2.462 3.33v-2.956c0-0.345 0.282-0.63 0.63-0.63 0.345 0 0.63 0.285 0.63 0.63zM9.769 12.879c0 0.344-0.282 0.629-0.631 0.629-0.345 0-0.627-0.285-0.627-0.629v-4.771c0-0.345 0.282-0.63 0.63-0.63 0.346 0 0.628 0.285 0.628 0.63zM7.303 13.508h-2.386c-0.345 0-0.63-0.285-0.63-0.629v-4.771c0-0.345 0.285-0.63 0.63-0.63 0.348 0 0.63 0.285 0.63 0.63v4.141h1.756c0.348 0 0.629 0.283 0.629 0.63 0 0.344-0.282 0.629-0.629 0.629zM24 10.314c0-5.371-5.385-9.742-12-9.742s-12 4.371-12 9.742c0 4.811 4.27 8.842 10.035 9.608 0.391 0.082 0.923 0.258 1.058 0.59 0.12 0.301 0.079 0.766 0.038 1.080l-0.164 1.020c-0.045 0.301-0.24 1.186 1.049 0.645 1.291-0.539 6.916-4.078 9.436-6.975 1.724-1.889 2.548-3.824 2.548-5.968z"></path>
</svg>

<svg xmlns="http://www.w3.org/2000/svg" width="24" height="24"><path fill="#00c300" d="M19.365 9.863a.631.631 0 0 1 0 1.261H17.61v1.125h1.755a.63.63 0 1 1 0 1.259h-2.386a.631.631 0 0 1-.627-.629V8.108c0-.345.282-.63.63-.63h2.386a.63.63 0 0 1-.003 1.26H17.61v1.125zm-3.855 3.016a.63.63 0 0 1-.631.627.618.618 0 0 1-.51-.25l-2.443-3.317v2.94a.63.63 0 0 1-1.257 0V8.108a.627.627 0 0 1 .624-.628c.195 0 .375.104.495.254l2.462 3.33V8.108c0-.345.282-.63.63-.63.345 0 .63.285.63.63zm-5.741 0a.632.632 0 0 1-.631.629.631.631 0 0 1-.627-.629V8.108c0-.345.282-.63.63-.63.346 0 .628.285.628.63zm-2.466.629H4.917a.634.634 0 0 1-.63-.629V8.108c0-.345.285-.63.63-.63.348 0 .63.285.63.63v4.141h1.756a.63.63 0 0 1 0 1.259zM24 10.314C24 4.943 18.615.572 12 .572S0 4.943 0 10.314c0 4.811 4.27 8.842 10.035 9.608.391.082.923.258 1.058.59.12.301.079.766.038 1.08l-.164 1.02c-.045.301-.24 1.186 1.049.645 1.291-.539 6.916-4.078 9.436-6.975C23.176 14.393 24 12.458 24 10.314z"/></svg>
